X:1
T:Calling for You
T:Calling for You
T:William James Kirkpatrick
T:Frances Jane (Fanny) Crosby, 1881
T:Public Domain Courtesy of the Cyber Hymnal™
T:Public Domain Courtesy of the Cyber Hymnal™
C:William James Kirkpatrick
Z:Public Domain
Z:Courtesy of the Cyber Hymnal™
%%score ( 1 2 ) ( 3 4 )
L:1/8
Q:1/4=90
M:6/8
K:Ab
V:1 treble 
V:2 treble 
V:3 bass 
V:4 bass 
V:1
 [CE] | [CE][DF][DG] [CA][DB][Ec] | [Fd][DF][Fd] [Fd][Ec][Ec] | [Ec][EB][DB] [EB][CA][CF] | %4
w: 1.~Oh,|come to the Sav- ior, His|arms are ex- tend- ed, Oh,|come to the Sav- ior so|
w: 2.~Oh,|come to the Sav- ior, for|why will you wan- der? This|world and its plea- sures no|
w: 3.~A-|way to the fount- ain, the|life giv- ing fount- ain, Its|soul cheer- ing wa- ters your|
w: 4.~A-|way, for the sha- dows of|night are ap- proach- ing, Then|lose not His bless- ings that|
 [=DB][DB][Dc] [EB]2 [_DE] | [CE][DF][DG] [CA][DB]c | [Fd][DF][Fd] [Fd][Ec][Ec] | %7
w: lov- ing and true; Be-|hold, He is call- ing in|ten- der com- pass- ion, O|
w: long- er pur- sue; A-|gain He is call- ing: how|can you re- ject Him? O|
w: strength will re- new; Then|come while the day beams of|mer- cy are shin- ing, O|
w: fall like the dew; Still,|still He is wait- ing and|ten- der- ly call- ing, O|
 [Ee][Ec][FA] [Fc][FB][=DF] | [EG][EA][EB] [EA]3 ||"^Refrain" [DF][Fd][Fd] d3 | E[Ec][Ec] [Ec]3 | %11
w: bro- ther, the Sav- ior is|call- ing for you.|||
w: bro- ther, the Sav- ior is|call- ing for you.|||
w: bro- ther, the Sav- ior is|call- ing for you.|Call- ing for you,|call- ing for you,|
w: bro- ther, the Sav- ior is|call- ing for you.|||
 [Ac][GB][GB] [AB][Ac][AB] | [AB][Ac][A=d] [Ge]3 | E d2- d2 EE | E c2- [Ec]2 z | %15
w: ||||
w: ||||
w: Bro- ther, the Sav- ior is|call- ing for you,|Call- ing, * call- ing,|Bro- ther, the|
w: ||||
 [FB][FA][DF] [CE][EA][Fc] | [Ge][GB][Gc] [EA]6 |] %17
w: ||
w: ||
w: * Sav- ior is call- ing|for you. * *|
w: ||
V:2
 x | x6 | x6 | x6 | x6 | x5 (E/_G/) | x6 | x6 | x6 || x3 (FFF) | E x5 | x6 | x6 | E (GGGEE) x | %14
 E EE x3 | x6 | x9 |] %17
V:3
 [A,,A,] | [A,,A,][A,,A,][A,,E,] [A,,E,][A,,E,][A,,A,] | [D,A,][D,A,][D,A,] [A,,A,][A,,A,][A,,A,] | %3
 [E,A,][E,G,][E,G,] F,F,[F,A,] | [B,,A,][B,,A,][B,,A,] [E,G,]2 [E,G,] | %5
 [A,,A,][A,,A,][A,,E,] [A,,E,][A,,E,][A,,A,] | [D,A,][D,A,][D,A,] [A,,A,][A,,A,]A, | %7
 [A,C]A,[F,C] [B,,=D][B,,D][B,,B,] | [E,B,][E,C][E,D] [A,,C]3 || [D,A,][D,A,][D,A,] [D,A,]3 | %10
 [A,C]A,A, A,3 | [E,E][E,E][E,E] [F,=D][F,D][F,D] | [B,,=D][B,,C][B,,B,] [E,B,]3 | %13
 [E,G,]([E,B,][E,B,] [E,B,]) z2 x | [A,C]A,A, A,2 z | [D,D][D,D][D,A,] [E,A,][E,C][E,A,] | %16
 [E,B,][E,E][E,E] [A,,C]6 |] %17
V:4
 x | x6 | x6 | x3 F,F, x | x6 | x6 | x5 A, | x A, x4 | x6 || x6 | x A,A, A,3 | x6 | x6 | x7 | %14
 x (A,A, A,2) x | x6 | x9 |] %17

